sources/nodes/gui_node/resources/icons/map-marker.svg

<?xml version="1.0" ?><svg height="24" version="1.1" width="24" xmlns="http://www.w3.org/2000/svg" xmlns:cc="http://creativecommons.org/ns#" xmlns:dc="http://purl.org/dc/elements/1.1/" xmlns:rdf="http://www.w3.org/1999/02/22-rdf-syntax-ns#"><g transform="translate(0 -1028.4)"><path d="m12 0c-4.4183 2.3685e-15 -8 3.5817-8 8 0 1.421 0.3816 2.75 1.0312 3.906 0.1079 0.192 0.221 0.381 0.3438 0.563l6.625 11.531 6.625-11.531c0.102-0.151 0.19-0.311 0.281-0.469l0.063-0.094c0.649-1.156 1.031-2.485 1.031-3.906 0-4.4183-3.582-8-8-8zm0 4c2.209 0 4 1.7909 4 4 0 2.209-1.791 4-4 4-2.2091 0-4-1.791-4-4 0-2.2091 1.7909-4 4-4z" fill="#e74c3c" transform="translate(0 1028.4)"/><path d="m12 3c-2.7614 0-5 2.2386-5 5 0 2.761 2.2386 5 5 5 2.761 0 5-2.239 5-5 0-2.7614-2.239-5-5-5zm0 2c1.657 0 3 1.3431 3 3s-1.343 3-3 3-3-1.3431-3-3 1.343-3 3-3z" fill="#c0392b" transform="translate(0 1028.4)"/></g></svg>

<?xml version="1.0" encoding="UTF-8" standalone="no"?>
<svg
   xmlns:dc="http://purl.org/dc/elements/1.1/"
   xmlns:cc="http://creativecommons.org/ns#"
   xmlns:rdf="http://www.w3.org/1999/02/22-rdf-syntax-ns#"
   xmlns:svg="http://www.w3.org/2000/svg"
   xmlns="http://www.w3.org/2000/svg"
   xmlns:sodipodi="http://sodipodi.sourceforge.net/DTD/sodipodi-0.dtd"
   xmlns:inkscape="http://www.inkscape.org/namespaces/inkscape"
   height="24"
   version="1.1"
   width="24"
   id="svg2"
   inkscape:version="0.91 r13725"
   sodipodi:docname="map-marker.svg">
  <metadata
     id="metadata14">
    <rdf:RDF>
      <cc:Work
         rdf:about="">
        <dc:format>image/svg+xml</dc:format>
        <dc:type
           rdf:resource="http://purl.org/dc/dcmitype/StillImage" />
        <dc:title></dc:title>
      </cc:Work>
    </rdf:RDF>
  </metadata>
  <defs
     id="defs12" />
  <sodipodi:namedview
     pagecolor="#ffffff"
     bordercolor="#666666"
     borderopacity="1"
     objecttolerance="10"
     gridtolerance="10"
     guidetolerance="10"
     inkscape:pageopacity="0"
     inkscape:pageshadow="2"
     inkscape:window-width="647"
     inkscape:window-height="480"
     id="namedview10"
     showgrid="false"
     inkscape:zoom="9.8333333"
     inkscape:cx="12"
     inkscape:cy="12"
     inkscape:window-x="0"
     inkscape:window-y="42"
     inkscape:window-maximized="0"
     inkscape:current-layer="svg2" />
  <g
     transform="matrix(0.95550847,0,0,0.96186441,0.53389836,-988.72373)"
     id="g4">
    <path
       d="M 12,0 C 7.5817,0 4,3.5817 4,8 c 0,1.421 0.3816,2.75 1.0312,3.906 0.1079,0.192 0.221,0.381 0.3438,0.563 L 12,24 18.625,12.469 c 0.102,-0.151 0.19,-0.311 0.281,-0.469 l 0.063,-0.094 C 19.618,10.75 20,9.421 20,8 20,3.5817 16.418,0 12,0 Z m 0,4 c 2.209,0 4,1.7909 4,4 0,2.209 -1.791,4 -4,4 C 9.7909,12 8,10.209 8,8 8,5.7909 9.7909,4 12,4 Z"
       transform="translate(0,1028.4)"
       id="path6"
       inkscape:connector-curvature="0"
       style="fill:#e74c3c" />
    <path
       d="M 12,3 C 9.2386,3 7,5.2386 7,8 c 0,2.761 2.2386,5 5,5 2.761,0 5,-2.239 5,-5 0,-2.7614 -2.239,-5 -5,-5 z m 0,2 c 1.657,0 3,1.3431 3,3 0,1.6569 -1.343,3 -3,3 C 10.343,11 9,9.6569 9,8 9,6.3431 10.343,5 12,5 Z"
       transform="translate(0,1028.4)"
       id="path8"
       inkscape:connector-curvature="0"
       style="fill:#c0392b" />
  </g>
</svg>
